svg/misc/table-o.svg

<svg width="512" height="512" viewBox="0 0 512 512" version="1.1" xmlns="http://www.w3.org/2000/svg"><path fill="currentColor" d="M256,32l-256,128l0,48l16,8l0,160c0,13.255 10.745,24 24,24l16,0c13.255,0 24,-10.745 24,-24l0,-128l144,72l0,152c0,13.255 10.745,24 24,24l16,0c13.255,0 24,-10.745 24,-24l0,-152l144,-72l0,128c0,13.255 10.745,24 24,24l16,0c13.255,0 24,-10.745 24,-24l0,-160l16,-8l0,-48l-256,-128Zm0,35.777l194.446,97.223l-194.446,92.223l-194.446,-92.223l194.446,-97.223Z"></path></svg>

<svg width="512" height="512" viewBox="0 0 512 512" fill="none" xmlns="http://www.w3.org/2000/svg">
<path fill-rule="evenodd" clip-rule="evenodd" d="M256 32L0 160V208L16 216V376C16 389.255 26.7452 400 40 400H56C69.2548 400 80 389.255 80 376V248L224 320V472C224 485.255 234.745 496 248 496H264C277.255 496 288 485.255 288 472V320L432 248V376C432 389.255 442.745 400 456 400H472C485.255 400 496 389.255 496 376V216L512 208V160L256 32ZM256 67.7771L61.5542 165L256 257.223L450.446 165L256 67.7771Z" fill="black"/>
</svg>
